views/assets/img/svg/affiliates-mobile.svg

<svg width="359" height="745" viewBox="0 0 359 745" fill="none" xmlns="http://www.w3.org/2000/svg">
<rect x="-1" width="360" height="729" fill="#FFFDED"/>
<path fill-rule="evenodd" clip-rule="evenodd" d="M3.85292e-05 614.967L14.9584 617.128L14.9584 617.128C29.9167 619.29 59.8334 623.612 89.75 620.37C100.221 619.236 110.692 617.174 121.163 615.113C140.608 611.285 160.054 607.457 179.5 609.564C193.39 611.069 207.28 615.603 221.17 620.136C237.196 625.367 253.223 630.597 269.25 631.176C299.167 632.257 329.083 617.128 344.042 609.564L359 602L359 649.006L359 653.869L359 693.131V696.913V745L344.042 737.436C329.083 729.872 299.167 714.743 269.25 715.824C253.223 716.403 237.196 721.633 221.17 726.864C207.28 731.397 193.39 735.931 179.5 737.436C160.054 739.543 140.608 735.715 121.163 731.887C110.692 729.826 100.221 727.764 89.75 726.63C59.8334 723.388 29.9167 727.71 14.9584 729.872L1.88833e-05 732.033L0 693.131L2.51778e-05 649.006L3.85292e-05 614.967Z" fill="#0D8284"/>
</svg>

<?xml version="1.0" encoding="utf-8"?>
<!-- Generator: Adobe Illustrator 24.2.1, SVG Export Plug-In . SVG Version: 6.00 Build 0)  -->
<svg version="1.1" id="Capa_1" xmlns="http://www.w3.org/2000/svg" xmlns:xlink="http://www.w3.org/1999/xlink" x="0px" y="0px"
	 viewBox="0 0 359 745" style="enable-background:new 0 0 359 745;" xml:space="preserve">
<style type="text/css">
	.st0{opacity:0.22;fill:#ABD5FF;}
	.st1{fill-rule:evenodd;clip-rule:evenodd;fill:#ABD5FF;}
</style>
<rect x="-1" class="st0" width="360" height="729"/>
<path class="st1" d="M0,615l15,2.2l0,0c15,2.2,44.9,6.5,74.8,3.2c10.5-1.1,20.9-3.2,31.4-5.3c19.4-3.8,38.9-7.7,58.3-5.5
	c13.9,1.5,27.8,6,41.7,10.6c16,5.2,32.1,10.5,48.1,11c29.9,1.1,59.8-14,74.8-21.6l15-7.6v47v4.9v39.3v3.8V745l-15-7.6
	c-15-7.6-44.9-22.7-74.8-21.6c-16,0.6-32.1,5.8-48.1,11c-13.9,4.5-27.8,9.1-41.7,10.6c-19.4,2.1-38.9-1.7-58.3-5.5
	c-10.5-2.1-20.9-4.1-31.4-5.3c-29.9-3.2-59.8,1.1-74.8,3.2L0,732l0-38.9L0,649L0,615z"/>
</svg>
